icons/numix/32x32/mimetypes/wps-office-pot.svg

<?xml version="1.0" encoding="UTF-8" standalone="no"?>
<svg
   xmlns:dc="http://purl.org/dc/elements/1.1/"
   xmlns:cc="http://creativecommons.org/ns#"
   xmlns:rdf="http://www.w3.org/1999/02/22-rdf-syntax-ns#"
   xmlns:svg="http://www.w3.org/2000/svg"
   xmlns="http://www.w3.org/2000/svg"
   xmlns:sodipodi="http://sodipodi.sourceforge.net/DTD/sodipodi-0.dtd"
   xmlns:inkscape="http://www.inkscape.org/namespaces/inkscape"
   width="32"
   height="32"
   viewBox="0 0 32 32"
   id="svg2"
   version="1.1"
   inkscape:version="0.48.5 r10040"
   sodipodi:docname="wps-office-pot.svg">
  <metadata
     id="metadata30">
    <rdf:RDF>
      <cc:Work
         rdf:about="">
        <dc:format>image/svg+xml</dc:format>
        <dc:type
           rdf:resource="http://purl.org/dc/dcmitype/StillImage" />
      </cc:Work>
    </rdf:RDF>
  </metadata>
  <defs
     id="defs28" />
  <sodipodi:namedview
     pagecolor="#ffffff"
     bordercolor="#666666"
     borderopacity="1"
     objecttolerance="10"
     gridtolerance="10"
     guidetolerance="10"
     inkscape:pageopacity="0"
     inkscape:pageshadow="2"
     inkscape:window-width="1280"
     inkscape:window-height="970"
     id="namedview26"
     showgrid="true"
     inkscape:zoom="3.6875"
     inkscape:cx="-52.037715"
     inkscape:cy="-1.2914717"
     inkscape:window-x="0"
     inkscape:window-y="0"
     inkscape:window-maximized="1"
     inkscape:current-layer="svg2">
    <inkscape:grid
       type="xygrid"
       id="grid3114" />
  </sodipodi:namedview>
  <path
     inkscape:connector-curvature="0"
     style="fill:#d14626;fill-opacity:1"
     d="M 5.34375,4e-7 C 4.656276,1.54e-5 4,0.6890074 4,1.4062504 L 4,30.59375 C 4,31.270239 4.695336,32 5.34375,32 l 21.3125,0 C 27.304664,32 28,31.270239 28,30.59375 l 0,-21.5937496 0,-7.625 C 28,0.7020494 27.297951,4e-7 26.625,4e-7 l -7.625,0 -13.65625,0 z"
     id="path4-1" />
  <path
     style="fill:#000000;fill-opacity:0.19599998"
     d="m 4,24 0,6.667969 C 4,31.316407 4.6875,32 5.332031,32 l 21.335938,0 C 27.3125,32 28,31.316407 28,30.667969 L 28,24 z"
     id="path3025"
     inkscape:connector-curvature="0" />
  <g
     style="fill:#ffffff"
     id="g18"
     transform="matrix(1.0497949,0,0,1.0497949,-0.79671876,-0.38837868)">
    <path
       d="m 10.929688,24.722656 c 0.738281,0 1.308593,0.136719 1.714843,0.40625 0.40625,0.265625 0.609375,0.699219 0.609375,1.304688 0,0.609375 -0.203125,1.054687 -0.617187,1.328125 -0.40625,0.269531 -0.984375,0.40625 -1.738281,0.40625 l -0.410157,0 0,1.726562 -1.15625,0 0,-5.046875 c 0.113281,-0.01953 0.238281,-0.03906 0.375,-0.05859 0.144531,-0.01562 0.289063,-0.02734 0.433594,-0.03125 0.144531,-0.01172 0.285156,-0.01953 0.421875,-0.02344 0.136719,-0.0078 0.257812,-0.01172 0.367188,-0.01172 m 0.128906,0.886719 c -0.06641,0 -0.164063,0 -0.289063,0.0078 -0.121093,0 -0.214843,0.0039 -0.28125,0.01562 l 0,1.652344 0.46875,0 c 0.367188,0 0.648438,-0.06641 0.835938,-0.191406 0.1875,-0.132812 0.28125,-0.355469 0.28125,-0.667969 0,-0.296875 -0.09375,-0.507812 -0.28125,-0.628906 -0.183594,-0.125 -0.425781,-0.1875 -0.734375,-0.1875"
       id="path20"
       inkscape:connector-curvature="0" />
    <path
       d="m 14.945312,27.332031 c 0,0.25 0.0078,0.484375 0.02734,0.703125 0.02344,0.214844 0.07031,0.402344 0.132813,0.5625 0.06641,0.160156 0.160156,0.285156 0.28125,0.378906 0.117187,0.09375 0.277343,0.140626 0.476562,0.140626 0.195313,0 0.351563,-0.04688 0.46875,-0.140626 0.125,-0.09375 0.21875,-0.21875 0.28125,-0.378906 0.07031,-0.167968 0.113281,-0.355468 0.132813,-0.570312 0.02344,-0.214844 0.03906,-0.445313 0.03906,-0.695313 0,-0.246093 -0.01563,-0.476562 -0.03906,-0.691406 -0.01953,-0.222656 -0.0625,-0.410156 -0.132813,-0.570313 -0.0625,-0.160156 -0.152343,-0.285156 -0.269531,-0.378906 -0.121094,-0.09375 -0.28125,-0.140625 -0.480469,-0.140625 -0.199219,0 -0.359375,0.04687 -0.476562,0.140625 -0.121094,0.09375 -0.214844,0.222656 -0.28125,0.386719 -0.0625,0.160156 -0.109375,0.347656 -0.132813,0.5625 -0.01953,0.214844 -0.02734,0.445313 -0.02734,0.691406 m -1.171874,0 c 0,-0.878906 0.183593,-1.542969 0.550781,-1.988281 0.371093,-0.453125 0.882812,-0.675781 1.539062,-0.675781 0.683594,0 1.203125,0.222656 1.558594,0.675781 0.355469,0.445312 0.535156,1.109375 0.535156,1.988281 0,0.882813 -0.183593,1.546875 -0.542969,2 C 17.050781,29.777344 16.535156,30 15.875,30 c -0.683594,0 -1.207031,-0.222656 -1.570312,-0.667969 -0.355469,-0.453125 -0.53125,-1.117187 -0.53125,-2"
       id="path22"
       inkscape:connector-curvature="0" />
    <path
       d="m 22.667969,24.78125 0,0.84375 -1.53125,0 0,4.269531 -1.164063,0 0,-4.269531 -1.527344,0 0,-0.84375 4.222657,0"
       id="path24"
       inkscape:connector-curvature="0" />
  </g>
  <path
     style="fill:#ffffff"
     inkscape:connector-curvature="0"
     id="path3009"
     d="m 8,11 5,0 0,3 -5,0 z" />
  <path
     style="fill:#ffffff"
     inkscape:connector-curvature="0"
     id="path3011"
     d="m 8,16 5,0 0,3 -5,0 z" />
  <path
     style="fill:#ffffff"
     inkscape:connector-curvature="0"
     id="path3015"
     d="M 20,9.992539 20,14 24,14 C 24,11.785644 22.208522,9.992539 20,9.992539 z" />
  <path
     style="fill:#ffffff"
     inkscape:connector-curvature="0"
     id="path3017"
     d="M 19.001814,11 C 16.792291,11 15,12.789768 15,15 c 0,2.210233 1.792291,4 4.001814,4 C 21.211338,19 23,17.210233 23,15 l -3.998186,0 z" />
</svg>

<svg width="32" xmlns="http://www.w3.org/2000/svg" height="32" viewBox="0 0 32 32" xmlns:xlink="http://www.w3.org/1999/xlink">
<path style="fill:#d14626" d="M 5.332031 0.667969 C 4.648438 0.667969 4 1.3125 4 2 L 4 30 C 4 30.648438 4.6875 31.332031 5.332031 31.332031 L 26.667969 31.332031 C 27.3125 31.332031 28 30.648438 28 30 L 28 2 C 28 1.3125 27.351562 0.667969 26.667969 0.667969 Z "/>
<g style="fill:#fff">
<path d="M 8 10.667969 L 12.667969 10.667969 L 12.667969 14 L 8 14 Z "/>
<path d="M 8 16 L 12.667969 16 L 12.667969 19.332031 L 8 19.332031 Z "/>
<path d="M 19.691406 10.667969 L 19.691406 14.867188 L 24 14.867188 C 24 12.546875 22.070312 10.667969 19.691406 10.667969 Z "/>
<path d="M 19.078125 11.265625 C 16.699219 11.265625 14.769531 13.148438 14.769531 15.464844 C 14.769531 17.785156 16.699219 19.667969 19.078125 19.667969 C 21.457031 19.667969 23.382812 17.785156 23.382812 15.464844 L 19.078125 15.464844 Z "/>
</g>
<path style="fill:#000;fill-opacity:.196" d="M 4 23.332031 L 4 30 C 4 30.648438 4.6875 31.332031 5.332031 31.332031 L 26.667969 31.332031 C 27.3125 31.332031 28 30.648438 28 30 L 28 23.332031 Z "/>
<g style="fill:#fff">
<path d="M 10.929688 24.722656 C 11.667969 24.722656 12.238281 24.859375 12.644531 25.128906 C 13.050781 25.394531 13.253906 25.828125 13.253906 26.433594 C 13.253906 27.042969 13.050781 27.488281 12.636719 27.761719 C 12.230469 28.03125 11.652344 28.167969 10.898438 28.167969 L 10.488281 28.167969 L 10.488281 29.894531 L 9.332031 29.894531 L 9.332031 24.847656 C 9.445312 24.828125 9.570312 24.808594 9.707031 24.789062 C 9.851562 24.773438 9.996094 24.761719 10.140625 24.757812 C 10.285156 24.746094 10.425781 24.738281 10.5625 24.734375 C 10.699219 24.726562 10.820312 24.722656 10.929688 24.722656 M 11.058594 25.609375 C 10.992188 25.609375 10.894531 25.609375 10.769531 25.617188 C 10.648438 25.617188 10.554688 25.621094 10.488281 25.632812 L 10.488281 27.285156 L 10.957031 27.285156 C 11.324219 27.285156 11.605469 27.21875 11.792969 27.09375 C 11.980469 26.960938 12.074219 26.738281 12.074219 26.425781 C 12.074219 26.128906 11.980469 25.917969 11.792969 25.796875 C 11.609375 25.671875 11.367188 25.609375 11.058594 25.609375 "/>
<path d="M 14.945312 27.332031 C 14.945312 27.582031 14.953125 27.816406 14.972656 28.035156 C 14.996094 28.25 15.042969 28.4375 15.105469 28.597656 C 15.171875 28.757812 15.265625 28.882812 15.386719 28.976562 C 15.503906 29.070312 15.664062 29.117188 15.863281 29.117188 C 16.058594 29.117188 16.214844 29.070312 16.332031 28.976562 C 16.457031 28.882812 16.550781 28.757812 16.613281 28.597656 C 16.683594 28.429688 16.726562 28.242188 16.746094 28.027344 C 16.769531 27.8125 16.785156 27.582031 16.785156 27.332031 C 16.785156 27.085938 16.769531 26.855469 16.746094 26.640625 C 16.726562 26.417969 16.683594 26.230469 16.613281 26.070312 C 16.550781 25.910156 16.460938 25.785156 16.34375 25.691406 C 16.222656 25.597656 16.0625 25.550781 15.863281 25.550781 C 15.664062 25.550781 15.503906 25.597656 15.386719 25.691406 C 15.265625 25.785156 15.171875 25.914062 15.105469 26.078125 C 15.042969 26.238281 14.996094 26.425781 14.972656 26.640625 C 14.953125 26.855469 14.945312 27.085938 14.945312 27.332031 M 13.773438 27.332031 C 13.773438 26.453125 13.957031 25.789062 14.324219 25.34375 C 14.695312 24.890625 15.207031 24.667969 15.863281 24.667969 C 16.546875 24.667969 17.066406 24.890625 17.421875 25.34375 C 17.777344 25.789062 17.957031 26.453125 17.957031 27.332031 C 17.957031 28.214844 17.773438 28.878906 17.414062 29.332031 C 17.050781 29.777344 16.535156 30 15.875 30 C 15.191406 30 14.667969 29.777344 14.304688 29.332031 C 13.949219 28.878906 13.773438 28.214844 13.773438 27.332031 "/>
<path d="M 22.667969 24.78125 L 22.667969 25.625 L 21.136719 25.625 L 21.136719 29.894531 L 19.972656 29.894531 L 19.972656 25.625 L 18.445312 25.625 L 18.445312 24.78125 L 22.667969 24.78125 "/>
</g>
</svg>
